X:4
T:Requiem For The Stewart Tartan 3rds
T:Medley 2019
R:Death March
C:Adam Blaine
M:3/4
L:1/8
K:D
[| {g}B4 {gcd}c{e}B | {Gdc}d4 e2 | {fege}f4 {gf}g2 | {a}e4 {g}f>e | 
{Gdc}d4 e2 | {g}(f2 f>)e d2 | {gcd}c<{e}(B B4) | {gBG}B4 {G}A2 |
{g}B4 {g}c2 | {Gdc}d4 {g}ed | {ge}f4 {gf}g2 | {a}e4 {ag}a2 | 
{e}(f2 f>)e d2 | {gef}e4 {B}c2 | {gcd}c<{e}(B B4) | {gBG}B4 {g}de ||
{g}A6| {d}B6 | {g}c6 | {G}A4 {g}d>e |
{g}B6 | {g}A6 | {g}B6 | {G}A4 {g}d>e |
{g}A4 {d}B2 | {G}A6 | {g}B2 A2 {GAG}A2 [M: 4/4]| {g}A6 {g}d>c |
[M:3/4]{g}B4 d2 | {ge}(f2 f>)e d2 | {gcd}c<{e}(B HB4) |]
